X:19
T:Leitram Fancy
C:Traditional
S:Fiddle Player's Tunebook 1
Z:Transcribed from the version played by Mick Moloney
M:6/8
L:1/8
Q:100
K:D
Q:120
A2 G |: "D"FGF "A"EFE |\
"D"D2 E F2 G |\
"D"AGF "G"GAB |\
"D"A2 A d2 e |\
"D"fed "G"gfe |\
"A"a2 g e2 c \
|1 "D"dcB AGF |\
"G"GAB BAG :|2\
"D"def "A"e2 c |\
"D"d3 d2 e |: "D"fed efg |\
"A"a2 g e2 g |\
"D"fed efg |\
"A"a3/2a/a efg |\
"D"a2 g "A"e2 c |\
"D"def "A"edc |\
|1 "D"dcB AGF |\
"G"G3 g3 :|2\
"D"d2 d "A"edc |\
"D"d2 A d2 e ||\
"D"fed efg |\
"A"a2 g e2 g |\
"D"fed efg |\
"A"a3/2a/a efg |\
"D"a2 g e2 c |\
"A"def edc |\
"D"dcB AGF |\
"G"GAB BAG |\
"D"FGF "A"EFE |\
"D"D2 E F2 G |\
"D"AGF "G"GAB |\
"D"A2 A d2 e |\
"D"fed gfe |\
"A"a2 g e2 c |\
"D"def "A"edc |\
"D"d4 ||
